X: 16205
T: Greenaghan Viaduct
R: jig
M: 6/8
K: Amajor
EF|EEE cBA|BFB dcB|cAB cde|dFB cAF|
EEE cBA|BFB def|edc dFB|cAA A:|
cd|~e3 aec|~f3 baf|ece aec|~B3 def|
~e3 aec|~f3 baf|edc dFB|cAA Acd|
~e3 aec|~f3 baf|ece aec|~B3 def|
edc dFB|cAA BAF|EEE dcB|cAA A||

